ui/StatusQ/src/assets/img/icons/communities/edit.svg

<svg fill="none" height="24" viewBox="0 0 24 24" width="24" xmlns="http://www.w3.org/2000/svg"><g fill="#4360df"><path d="m11.25 3.50019c.4142 0 .75-.33579.75-.75s-.3358-.75-.75-.75h-5.25c-2.20914 0-4 1.79086-4 4v12.00001c0 2.2091 1.79086 4 4 4h12c2.2091 0 4-1.7909 4-4v-5.25c0-.4142-.3358-.75-.75-.75s-.75.3358-.75.75v5.25c0 1.3807-1.1193 2.5-2.5 2.5h-12c-1.38071 0-2.5-1.1193-2.5-2.5v-12.00001c0-1.38071 1.11929-2.5 2.5-2.5z"/><path clip-rule="evenodd" d="m21.2803 2.71986c-.9832-.98325-2.5774-.98325-3.5606 0l-8.38357 8.38354c-.33046.3305-.57126.7397-.69965 1.1891l-.85762 3.0016c-.07483.2619-.00179.5438.19081.7364s.47448.2657.73637.1908l3.00166-.8576c.4494-.1284.8586-.3692 1.1891-.6996l8.3835-8.38358c.9833-.98325.9833-2.57741 0-3.56066zm-2.5 1.06066c.3975-.39746 1.0419-.39746 1.4394 0 .3974.39746.3974 1.04188 0 1.43934l-8.3836 8.38354c-.1502.1502-.3362.2597-.5405.318-.7425.2122-1.42898-.4743-1.2168-1.2169.0583-.2042.1678-.3902.318-.5404z" fill-rule="evenodd"/></g></svg>

<svg width="24" height="24" viewBox="0 0 24 24" fill="none" xmlns="http://www.w3.org/2000/svg">
<path d="M11.25 3.50019C11.6642 3.50019 12 3.1644 12 2.75019C12 2.33598 11.6642 2.00019 11.25 2.00019L6 2.00019C3.79086 2.00019 2 3.79105 2 6.00019L2 18.0002C2 20.2093 3.79086 22.0002 6 22.0002H18C20.2091 22.0002 22 20.2093 22 18.0002V12.7502C22 12.336 21.6642 12.0002 21.25 12.0002C20.8358 12.0002 20.5 12.336 20.5 12.7502V18.0002C20.5 19.3809 19.3807 20.5002 18 20.5002H6C4.61929 20.5002 3.5 19.3809 3.5 18.0002L3.5 6.00019C3.5 4.61948 4.61929 3.50019 6 3.50019L11.25 3.50019Z" fill="#4360DF"/>
<path fill-rule="evenodd" clip-rule="evenodd" d="M21.2803 2.71986C20.2971 1.73661 18.7029 1.73661 17.7197 2.71986L9.33613 11.1034C9.00567 11.4339 8.76487 11.8431 8.63648 12.2925L7.77886 15.2941C7.70403 15.556 7.77707 15.8379 7.96967 16.0305C8.16227 16.2231 8.44415 16.2962 8.70604 16.2213L11.7077 15.3637C12.1571 15.2353 12.5663 14.9945 12.8968 14.6641L21.2803 6.28052C22.2636 5.29727 22.2636 3.70311 21.2803 2.71986ZM18.7803 3.78052C19.1778 3.38306 19.8222 3.38306 20.2197 3.78052C20.6171 4.17798 20.6171 4.8224 20.2197 5.21986L11.8361 13.6034C11.6859 13.7536 11.4999 13.8631 11.2956 13.9214C10.5531 14.1336 9.86662 13.4471 10.0788 12.7045C10.1371 12.5003 10.2466 12.3143 10.3968 12.1641L18.7803 3.78052Z" fill="#4360DF"/>
</svg>
